vue-project/src/assets/Surcadence..svg

<svg width="297" height="37" viewBox="0 0 297 37" fill="none" xmlns="http://www.w3.org/2000/svg">
<path d="M22.8054 11.625C22.8963 10.3409 22.5554 9.34659 21.7827 8.64205C21.0213 7.9375 19.8168 7.58523 18.169 7.58523C17.0781 7.58523 16.1463 7.72727 15.3736 8.01136C14.6009 8.28409 13.9929 8.67045 13.5497 9.17045C13.1065 9.65909 12.8281 10.2273 12.7145 10.875C12.6122 11.3864 12.6406 11.8409 12.7997 12.2386C12.9588 12.6364 13.2372 12.9886 13.6349 13.2955C14.044 13.6023 14.5497 13.8693 15.152 14.0966C15.7656 14.3239 16.4531 14.5227 17.2145 14.6932L20.0781 15.375C21.7372 15.75 23.1747 16.25 24.3906 16.875C25.6179 17.4886 26.6122 18.233 27.3736 19.108C28.1349 19.9716 28.6577 20.9659 28.9418 22.0909C29.2259 23.2159 29.2486 24.4773 29.0099 25.875C28.6463 28.0795 27.777 29.9716 26.402 31.5511C25.0384 33.1307 23.2543 34.3409 21.0497 35.1818C18.8565 36.0227 16.3054 36.4432 13.3963 36.4432C10.4872 36.4432 8.01563 36.0057 5.98153 35.1307C3.95881 34.2443 2.4929 32.9091 1.58381 31.125C0.674716 29.3409 0.430398 27.0909 0.850852 24.375H8.91335C8.78835 25.5 8.9304 26.4375 9.33949 27.1875C9.75994 27.9375 10.4077 28.5057 11.2827 28.892C12.1577 29.2784 13.2145 29.4716 14.4531 29.4716C15.5895 29.4716 16.5838 29.3182 17.4361 29.0114C18.2997 28.7045 18.9872 28.2784 19.4986 27.733C20.0213 27.1875 20.3395 26.5625 20.4531 25.858C20.5668 25.2102 20.4588 24.6477 20.1293 24.1705C19.8111 23.6932 19.2656 23.2784 18.4929 22.9261C17.7315 22.5739 16.7315 22.2557 15.4929 21.9716L11.9986 21.1193C9.11222 20.4148 6.92472 19.2898 5.43608 17.7443C3.95881 16.1989 3.43608 14.1023 3.8679 11.4545C4.23153 9.28409 5.12926 7.38636 6.56108 5.76136C8.00426 4.13636 9.82813 2.875 12.0327 1.97727C14.2486 1.06818 16.6861 0.613635 19.3452 0.613635C22.0497 0.613635 24.3224 1.07386 26.1634 1.99432C28.0156 2.90341 29.3509 4.1875 30.169 5.84659C30.9986 7.49432 31.2372 9.42045 30.8849 11.625H22.8054ZM50.3679 24.6989L52.8565 9.81818H61.1747L56.8111 36H48.8679L49.669 31.125H49.3963C48.5895 32.7273 47.402 34 45.8338 34.9432C44.2656 35.875 42.4986 36.3409 40.5327 36.3409C38.7486 36.3409 37.2486 35.9318 36.0327 35.1136C34.8168 34.2955 33.9531 33.1534 33.4418 31.6875C32.9418 30.2102 32.8509 28.483 33.169 26.5057L35.9645 9.81818H44.2997L41.794 24.8693C41.5781 26.2898 41.7656 27.4091 42.3565 28.2273C42.9588 29.0455 43.902 29.4545 45.1861 29.4545C46.0156 29.4545 46.794 29.2727 47.5213 28.9091C48.2486 28.5341 48.8622 27.9943 49.3622 27.2898C49.8736 26.5739 50.2088 25.7102 50.3679 24.6989ZM62.1165 36L66.4801 9.81818H74.5767L73.7756 14.5909H74.0483C74.8097 12.8636 75.804 11.5795 77.0312 10.7386C78.2585 9.88636 79.5881 9.46023 81.0199 9.46023C81.4063 9.46023 81.7926 9.48864 82.179 9.54545C82.5767 9.59091 82.9517 9.65909 83.304 9.75L82.0767 17.0114C81.6903 16.8636 81.1847 16.7557 80.5597 16.6875C79.9347 16.608 79.3665 16.5682 78.8551 16.5682C77.8665 16.5682 76.946 16.7898 76.0938 17.233C75.2528 17.6648 74.5369 18.2727 73.946 19.0568C73.3665 19.8295 72.9858 20.7386 72.804 21.7841L70.4517 36H62.1165ZM93.1136 36.4943C90.3523 36.4943 88.0739 35.9261 86.2784 34.7898C84.4943 33.6534 83.2443 32.0739 82.5284 30.0511C81.8125 28.017 81.6818 25.6648 82.1364 22.9943C82.5682 20.3125 83.483 17.9602 84.8807 15.9375C86.2784 13.9034 88.0625 12.3182 90.233 11.1818C92.4034 10.0455 94.858 9.47727 97.5966 9.47727C100.017 9.47727 102.051 9.91477 103.699 10.7898C105.358 11.6648 106.557 12.9034 107.295 14.5057C108.045 16.0966 108.267 17.9659 107.96 20.1136H100.17C100.239 18.7841 99.9659 17.7386 99.3523 16.9773C98.7386 16.2045 97.8466 15.8182 96.6761 15.8182C95.6875 15.8182 94.7784 16.0909 93.9489 16.6364C93.1307 17.1705 92.4318 17.9659 91.8523 19.0227C91.2841 20.0682 90.875 21.3636 90.625 22.9091C90.375 24.4545 90.358 25.7614 90.5739 26.8295C90.8011 27.8864 91.2273 28.6875 91.8523 29.233C92.4886 29.767 93.2955 30.0341 94.2727 30.0341C95.0455 30.0341 95.7614 29.8693 96.4205 29.5398C97.0795 29.2102 97.6534 28.7273 98.142 28.0909C98.6307 27.4432 99.0114 26.6591 99.2841 25.7386H107.057C106.614 27.9091 105.756 29.8011 104.483 31.4148C103.222 33.017 101.625 34.267 99.6932 35.1648C97.7614 36.0511 95.5682 36.4943 93.1136 36.4943ZM116.913 36.4432C115.254 36.4432 113.822 36.1648 112.618 35.608C111.425 35.0398 110.55 34.1818 109.993 33.0341C109.447 31.8864 109.317 30.4545 109.601 28.7386C109.851 27.2841 110.311 26.0625 110.982 25.0739C111.663 24.0739 112.499 23.2614 113.487 22.6364C114.487 22.0114 115.601 21.5341 116.828 21.2045C118.055 20.875 119.339 20.6534 120.68 20.5398C122.18 20.4034 123.396 20.2557 124.328 20.0966C125.271 19.9375 125.976 19.7159 126.442 19.4318C126.908 19.1364 127.192 18.7273 127.294 18.2045V18.1193C127.43 17.2443 127.243 16.5682 126.732 16.0909C126.22 15.6136 125.453 15.375 124.43 15.375C123.339 15.375 122.408 15.6136 121.635 16.0909C120.862 16.5682 120.322 17.2273 120.016 18.0682L112.379 17.7955C112.857 16.2045 113.675 14.7841 114.834 13.5341C115.993 12.2727 117.464 11.2841 119.249 10.5682C121.044 9.84091 123.118 9.47727 125.47 9.47727C127.129 9.47727 128.629 9.67614 129.97 10.0739C131.311 10.4602 132.442 11.0284 133.362 11.7784C134.294 12.517 134.959 13.4261 135.357 14.5057C135.754 15.5852 135.839 16.8182 135.612 18.2045L132.629 36H124.788L125.402 32.3523H125.197C124.584 33.2386 123.862 33.9886 123.033 34.6023C122.214 35.2159 121.294 35.6761 120.271 35.983C119.249 36.2898 118.129 36.4432 116.913 36.4432ZM120.425 30.9886C121.3 30.9886 122.129 30.8068 122.913 30.4432C123.697 30.0795 124.357 29.5795 124.891 28.9432C125.436 28.2955 125.783 27.5455 125.93 26.6932L126.322 24.2045C126.084 24.3295 125.783 24.4432 125.419 24.5455C125.055 24.6477 124.669 24.7443 124.26 24.8352C123.851 24.9148 123.43 24.9943 122.999 25.0739C122.578 25.142 122.175 25.2045 121.788 25.2614C120.97 25.3864 120.26 25.5795 119.658 25.8409C119.055 26.1023 118.572 26.4432 118.209 26.8636C117.857 27.2727 117.641 27.7614 117.561 28.3295C117.425 29.1818 117.624 29.8409 118.158 30.3068C118.692 30.7614 119.447 30.9886 120.425 30.9886ZM147.254 36.375C145.322 36.375 143.646 35.875 142.226 34.875C140.805 33.875 139.788 32.375 139.175 30.375C138.572 28.375 138.516 25.892 139.004 22.9261C139.516 19.8466 140.425 17.3125 141.732 15.3239C143.038 13.3352 144.561 11.8636 146.3 10.9091C148.05 9.95455 149.834 9.47727 151.652 9.47727C153.027 9.47727 154.163 9.71591 155.061 10.1932C155.97 10.6591 156.68 11.2614 157.192 12C157.703 12.7386 158.055 13.5057 158.249 14.3011H158.436L160.635 1.09091H168.97L163.175 36H154.925L155.624 31.7557H155.368C154.879 32.5625 154.254 33.3182 153.493 34.0227C152.732 34.7273 151.828 35.2955 150.783 35.7273C149.749 36.1591 148.572 36.375 147.254 36.375ZM151.192 29.8807C152.203 29.8807 153.118 29.5966 153.936 29.0284C154.754 28.4489 155.442 27.6364 155.999 26.5909C156.567 25.5455 156.964 24.3182 157.192 22.9091C157.43 21.4773 157.442 20.2443 157.226 19.2102C157.01 18.1761 156.584 17.3807 155.947 16.8239C155.322 16.267 154.499 15.9886 153.476 15.9886C152.453 15.9886 151.538 16.2727 150.732 16.8409C149.925 17.4091 149.254 18.2102 148.72 19.2443C148.186 20.2784 147.8 21.5 147.561 22.9091C147.334 24.3182 147.311 25.5455 147.493 26.5909C147.686 27.6364 148.089 28.4489 148.703 29.0284C149.328 29.5966 150.158 29.8807 151.192 29.8807ZM180.646 36.4943C177.908 36.4943 175.635 35.9545 173.828 34.875C172.033 33.7841 170.771 32.233 170.044 30.2216C169.317 28.1989 169.186 25.7955 169.652 23.0114C170.107 20.3068 171.033 17.9432 172.43 15.9205C173.839 13.8864 175.612 12.3068 177.749 11.1818C179.885 10.0455 182.266 9.47727 184.891 9.47727C186.754 9.47727 188.408 9.76705 189.851 10.3466C191.294 10.9261 192.487 11.7898 193.43 12.9375C194.374 14.0739 195.016 15.4716 195.357 17.1307C195.697 18.7898 195.686 20.6932 195.322 22.8409L194.999 24.9205H172.26L173.027 20.0795H188.027C188.163 19.1932 188.089 18.4034 187.805 17.7102C187.521 17.017 187.061 16.4773 186.425 16.0909C185.8 15.6932 185.033 15.4943 184.124 15.4943C183.203 15.4943 182.339 15.7102 181.533 16.142C180.737 16.5625 180.061 17.1307 179.504 17.8466C178.947 18.5625 178.584 19.3693 178.413 20.267L177.51 25.2273C177.328 26.3295 177.379 27.2727 177.663 28.0568C177.947 28.8409 178.436 29.4432 179.129 29.8636C179.822 30.2727 180.714 30.4773 181.805 30.4773C182.533 30.4773 183.214 30.3807 183.851 30.1875C184.487 29.983 185.055 29.6818 185.555 29.2841C186.067 28.875 186.482 28.3807 186.8 27.8011L194.402 28.0227C193.788 29.7386 192.839 31.233 191.555 32.5057C190.271 33.767 188.703 34.75 186.851 35.4545C185.01 36.1477 182.942 36.4943 180.646 36.4943ZM208.273 21.0682L205.784 36H197.449L201.812 9.81818H209.739L208.955 14.625H209.244C210.063 13.0227 211.25 11.767 212.807 10.858C214.364 9.9375 216.114 9.47727 218.057 9.47727C219.886 9.47727 221.415 9.88636 222.642 10.7045C223.869 11.5227 224.739 12.6705 225.25 14.1477C225.761 15.6136 225.847 17.3352 225.506 19.3125L222.71 36H214.375L216.881 20.9489C217.131 19.5057 216.955 18.375 216.352 17.5568C215.761 16.7273 214.795 16.3125 213.455 16.3125C212.58 16.3125 211.778 16.5057 211.051 16.892C210.335 17.267 209.733 17.8068 209.244 18.5114C208.767 19.2159 208.443 20.0682 208.273 21.0682ZM239.973 36.4943C237.212 36.4943 234.933 35.9261 233.138 34.7898C231.354 33.6534 230.104 32.0739 229.388 30.0511C228.672 28.017 228.541 25.6648 228.996 22.9943C229.428 20.3125 230.342 17.9602 231.74 15.9375C233.138 13.9034 234.922 12.3182 237.092 11.1818C239.263 10.0455 241.717 9.47727 244.456 9.47727C246.876 9.47727 248.911 9.91477 250.558 10.7898C252.217 11.6648 253.416 12.9034 254.155 14.5057C254.905 16.0966 255.126 17.9659 254.82 20.1136H247.03C247.098 18.7841 246.825 17.7386 246.212 16.9773C245.598 16.2045 244.706 15.8182 243.536 15.8182C242.547 15.8182 241.638 16.0909 240.808 16.6364C239.99 17.1705 239.291 17.9659 238.712 19.0227C238.143 20.0682 237.734 21.3636 237.484 22.9091C237.234 24.4545 237.217 25.7614 237.433 26.8295C237.661 27.8864 238.087 28.6875 238.712 29.233C239.348 29.767 240.155 30.0341 241.132 30.0341C241.905 30.0341 242.621 29.8693 243.28 29.5398C243.939 29.2102 244.513 28.7273 245.001 28.0909C245.49 27.4432 245.871 26.6591 246.143 25.7386H253.916C253.473 27.9091 252.615 29.8011 251.342 31.4148C250.081 33.017 248.484 34.267 246.553 35.1648C244.621 36.0511 242.428 36.4943 239.973 36.4943ZM268.631 36.4943C265.892 36.4943 263.619 35.9545 261.812 34.875C260.017 33.7841 258.756 32.233 258.028 30.2216C257.301 28.1989 257.17 25.7955 257.636 23.0114C258.091 20.3068 259.017 17.9432 260.415 15.9205C261.824 13.8864 263.597 12.3068 265.733 11.1818C267.869 10.0455 270.25 9.47727 272.875 9.47727C274.739 9.47727 276.392 9.76705 277.835 10.3466C279.278 10.9261 280.472 11.7898 281.415 12.9375C282.358 14.0739 283 15.4716 283.341 17.1307C283.682 18.7898 283.67 20.6932 283.307 22.8409L282.983 24.9205H260.244L261.011 20.0795H276.011C276.148 19.1932 276.074 18.4034 275.79 17.7102C275.506 17.017 275.045 16.4773 274.409 16.0909C273.784 15.6932 273.017 15.4943 272.108 15.4943C271.188 15.4943 270.324 15.7102 269.517 16.142C268.722 16.5625 268.045 17.1307 267.489 17.8466C266.932 18.5625 266.568 19.3693 266.398 20.267L265.494 25.2273C265.313 26.3295 265.364 27.2727 265.648 28.0568C265.932 28.8409 266.42 29.4432 267.114 29.8636C267.807 30.2727 268.699 30.4773 269.79 30.4773C270.517 30.4773 271.199 30.3807 271.835 30.1875C272.472 29.983 273.04 29.6818 273.54 29.2841C274.051 28.875 274.466 28.3807 274.784 27.8011L282.386 28.0227C281.773 29.7386 280.824 31.233 279.54 32.5057C278.256 33.767 276.688 34.75 274.835 35.4545C272.994 36.1477 270.926 36.4943 268.631 36.4943ZM292.251 36.4943C291.024 36.4943 289.973 36.0625 289.098 35.1989C288.234 34.3352 287.808 33.2898 287.82 32.0625C287.808 30.858 288.234 29.8295 289.098 28.9773C289.973 28.1136 291.024 27.6818 292.251 27.6818C293.411 27.6818 294.433 28.1136 295.32 28.9773C296.217 29.8295 296.672 30.858 296.683 32.0625C296.672 32.8807 296.456 33.625 296.036 34.2955C295.626 34.9659 295.087 35.5 294.416 35.8977C293.757 36.2955 293.036 36.4943 292.251 36.4943Z" fill="white"/>
</svg>

<svg width="297" height="37" fill="none" xmlns="http://www.w3.org/2000/svg"><path d="M22.805 11.625c.091-1.284-.25-2.278-1.022-2.983-.762-.704-1.966-1.057-3.614-1.057-1.09 0-2.023.142-2.795.426-.773.273-1.381.66-1.824 1.16a3.35 3.35 0 0 0-.836 1.704c-.102.511-.073.966.086 1.364.159.397.437.75.835 1.056.409.307.915.574 1.517.802.614.227 1.301.426 2.063.596l2.863.682c1.66.375 3.097.875 4.313 1.5 1.227.614 2.221 1.358 2.983 2.233a7.06 7.06 0 0 1 1.568 2.983c.284 1.125.307 2.386.068 3.784-.364 2.204-1.233 4.097-2.608 5.676-1.364 1.58-3.148 2.79-5.352 3.63-2.194.842-4.745 1.262-7.654 1.262s-5.38-.437-7.414-1.312c-2.023-.887-3.49-2.222-4.398-4.006-.91-1.784-1.154-4.034-.733-6.75h8.062c-.125 1.125.017 2.063.426 2.813.42.75 1.069 1.318 1.944 1.704.875.386 1.931.58 3.17.58 1.136 0 2.13-.154 2.983-.46.864-.308 1.551-.734 2.063-1.279.522-.546.84-1.17.954-1.875.114-.648.006-1.21-.324-1.688-.318-.477-.863-.892-1.636-1.244-.761-.352-1.761-.67-3-.954l-3.494-.853c-2.887-.704-5.074-1.83-6.563-3.375-1.477-1.545-2-3.642-1.568-6.29.364-2.17 1.261-4.068 2.693-5.693 1.443-1.625 3.267-2.886 5.472-3.784 2.216-.909 4.653-1.363 7.312-1.363 2.705 0 4.977.46 6.818 1.38 1.853.91 3.188 2.194 4.006 3.853.83 1.647 1.068 3.573.716 5.778h-8.08zm27.563 13.074 2.488-14.88h8.319L56.81 36h-7.943l.801-4.875h-.273c-.806 1.602-1.994 2.875-3.562 3.818-1.568.932-3.335 1.398-5.301 1.398-1.784 0-3.284-.41-4.5-1.227-1.216-.819-2.08-1.96-2.591-3.426-.5-1.478-.591-3.205-.273-5.182l2.796-16.688H44.3L41.794 24.87c-.216 1.42-.028 2.54.563 3.358.602.819 1.545 1.227 2.83 1.227a5.15 5.15 0 0 0 2.334-.545 5.114 5.114 0 0 0 1.841-1.62c.512-.715.847-1.579 1.006-2.59zM62.116 36 66.48 9.818h8.097l-.801 4.773h.272c.762-1.727 1.756-3.011 2.983-3.852 1.227-.853 2.557-1.279 3.989-1.279.386 0 .773.029 1.159.085.398.046.773.114 1.125.205l-1.227 7.261c-.387-.147-.892-.255-1.517-.323-.625-.08-1.194-.12-1.705-.12-.989 0-1.909.222-2.761.665a6.229 6.229 0 0 0-2.148 1.824c-.58.773-.96 1.682-1.142 2.727L70.452 36h-8.335zm30.998.494c-2.762 0-5.04-.568-6.836-1.704-1.784-1.137-3.034-2.716-3.75-4.739-.716-2.034-.846-4.386-.392-7.057.432-2.681 1.347-5.034 2.745-7.056a14.65 14.65 0 0 1 5.352-4.756c2.17-1.136 4.625-1.705 7.364-1.705 2.42 0 4.454.438 6.102 1.313 1.659.875 2.858 2.113 3.596 3.716.75 1.59.972 3.46.665 5.608h-7.79c.069-1.33-.204-2.375-.818-3.137-.613-.773-1.505-1.159-2.676-1.159-.989 0-1.898.273-2.727.818-.818.535-1.517 1.33-2.097 2.387-.568 1.045-.977 2.34-1.227 3.886-.25 1.546-.267 2.852-.051 3.92.227 1.057.653 1.858 1.278 2.404.637.534 1.444.801 2.42.801.773 0 1.49-.165 2.148-.494a4.962 4.962 0 0 0 1.722-1.45c.489-.647.87-1.43 1.142-2.351h7.773c-.443 2.17-1.301 4.062-2.574 5.676-1.261 1.602-2.858 2.852-4.79 3.75-1.932.886-4.125 1.33-6.58 1.33zm23.799-.05c-1.659 0-3.091-.28-4.295-.836-1.193-.568-2.068-1.426-2.625-2.574-.546-1.148-.676-2.58-.392-4.295.25-1.455.71-2.677 1.381-3.665a8.523 8.523 0 0 1 2.505-2.438c1-.625 2.114-1.102 3.341-1.431a21.98 21.98 0 0 1 3.852-.665c1.5-.137 2.716-.284 3.648-.443.943-.16 1.648-.381 2.114-.665.466-.296.75-.705.852-1.227v-.086c.136-.875-.051-1.55-.562-2.028-.512-.477-1.279-.716-2.302-.716-1.091 0-2.022.239-2.795.716a3.79 3.79 0 0 0-1.619 1.977l-7.637-.273a10.746 10.746 0 0 1 2.455-4.26c1.159-1.262 2.63-2.25 4.415-2.967 1.795-.727 3.869-1.09 6.221-1.09 1.659 0 3.159.198 4.5.596 1.341.386 2.472.954 3.392 1.704a6.137 6.137 0 0 1 1.995 2.728c.397 1.08.482 2.312.255 3.698L132.629 36h-7.841l.614-3.648h-.205a9.489 9.489 0 0 1-2.164 2.25 8.762 8.762 0 0 1-2.762 1.381c-1.022.307-2.142.46-3.358.46zm3.512-5.455c.875 0 1.704-.182 2.488-.546a5.646 5.646 0 0 0 1.978-1.5 4.663 4.663 0 0 0 1.039-2.25l.392-2.489a4.702 4.702 0 0 1-.903.341c-.364.103-.75.2-1.159.29-.409.08-.83.16-1.261.239-.421.068-.824.13-1.211.187-.818.125-1.528.319-2.13.58-.603.261-1.086.602-1.449 1.023-.352.409-.568.897-.648 1.465-.136.853.063 1.512.597 1.978.534.454 1.289.682 2.267.682zm26.829 5.386c-1.932 0-3.608-.5-5.028-1.5-1.421-1-2.438-2.5-3.051-4.5-.603-2-.659-4.483-.171-7.449.512-3.08 1.421-5.613 2.728-7.602 1.306-1.989 2.829-3.46 4.568-4.415 1.75-.954 3.534-1.432 5.352-1.432 1.375 0 2.511.239 3.409.716.909.466 1.619 1.068 2.131 1.807a6.91 6.91 0 0 1 1.057 2.301h.187l2.199-13.21h8.335L163.175 36h-8.25l.699-4.244h-.256a10.544 10.544 0 0 1-1.875 2.267c-.761.704-1.665 1.272-2.71 1.704-1.034.432-2.211.648-3.529.648zm3.938-6.494a4.7 4.7 0 0 0 2.744-.853c.818-.58 1.506-1.392 2.063-2.437.568-1.046.965-2.273 1.193-3.682.238-1.432.25-2.665.034-3.699-.216-1.034-.642-1.83-1.279-2.386-.625-.557-1.448-.835-2.471-.835-1.023 0-1.938.284-2.744.852-.807.568-1.478 1.37-2.012 2.403-.534 1.034-.92 2.256-1.159 3.665-.227 1.41-.25 2.637-.068 3.682.193 1.045.596 1.858 1.21 2.437.625.569 1.455.853 2.489.853zm29.454 6.613c-2.738 0-5.011-.54-6.818-1.619-1.795-1.09-3.057-2.642-3.784-4.653-.727-2.023-.858-4.427-.392-7.21.455-2.705 1.381-5.069 2.778-7.091 1.409-2.035 3.182-3.614 5.319-4.74 2.136-1.135 4.517-1.704 7.142-1.704 1.863 0 3.517.29 4.96.87 1.443.58 2.636 1.443 3.579 2.59.944 1.137 1.586 2.535 1.927 4.194.34 1.659.329 3.562-.035 5.71l-.323 2.08H172.26l.767-4.841h15c.136-.887.062-1.677-.222-2.37a3.32 3.32 0 0 0-1.38-1.62c-.625-.397-1.392-.596-2.301-.596-.921 0-1.785.216-2.591.648a6.233 6.233 0 0 0-2.029 1.705 5.587 5.587 0 0 0-1.091 2.42l-.903 4.96c-.182 1.102-.131 2.046.153 2.83a3.403 3.403 0 0 0 1.466 1.807c.693.409 1.585.613 2.676.613a7.01 7.01 0 0 0 2.046-.29 5.333 5.333 0 0 0 1.704-.903c.512-.409.927-.903 1.245-1.483l7.602.222a11.855 11.855 0 0 1-2.847 4.483c-1.284 1.261-2.852 2.244-4.704 2.949-1.841.693-3.909 1.04-6.205 1.04zm27.627-15.426L205.784 36h-8.335l4.363-26.182h7.927l-.784 4.807h.289a9.04 9.04 0 0 1 3.563-3.767c1.557-.92 3.307-1.38 5.25-1.38 1.829 0 3.358.408 4.585 1.226 1.227.819 2.097 1.966 2.608 3.444.511 1.466.597 3.187.256 5.165L222.71 36h-8.335l2.506-15.051c.25-1.443.074-2.574-.529-3.392-.591-.83-1.557-1.244-2.897-1.244-.875 0-1.677.193-2.404.579a5.017 5.017 0 0 0-1.807 1.62c-.477.704-.801 1.556-.971 2.556zm31.7 15.426c-2.761 0-5.04-.568-6.835-1.704-1.784-1.137-3.034-2.716-3.75-4.739-.716-2.034-.847-4.386-.392-7.057.432-2.681 1.346-5.034 2.744-7.056a14.655 14.655 0 0 1 5.352-4.756c2.171-1.136 4.625-1.705 7.364-1.705 2.42 0 4.455.438 6.102 1.313 1.659.875 2.858 2.113 3.597 3.716.75 1.59.971 3.46.665 5.608h-7.79c.068-1.33-.205-2.375-.818-3.137-.614-.773-1.506-1.159-2.676-1.159-.989 0-1.898.273-2.728.818-.818.535-1.517 1.33-2.096 2.387-.569 1.045-.978 2.34-1.228 3.886-.25 1.546-.267 2.852-.051 3.92.228 1.057.654 1.858 1.279 2.404.636.534 1.443.801 2.42.801.773 0 1.489-.165 2.148-.494a4.955 4.955 0 0 0 1.721-1.45c.489-.647.87-1.43 1.142-2.351h7.773c-.443 2.17-1.301 4.062-2.574 5.676-1.261 1.602-2.858 2.852-4.789 3.75-1.932.886-4.125 1.33-6.58 1.33zm28.658 0c-2.739 0-5.012-.54-6.819-1.619-1.795-1.09-3.056-2.642-3.784-4.653-.727-2.023-.858-4.427-.392-7.21.455-2.705 1.381-5.069 2.779-7.091 1.409-2.035 3.182-3.614 5.318-4.74 2.136-1.135 4.517-1.704 7.142-1.704 1.864 0 3.517.29 4.96.87 1.443.58 2.637 1.443 3.58 2.59.943 1.137 1.585 2.535 1.926 4.194.341 1.659.329 3.562-.034 5.71l-.324 2.08h-22.739l.767-4.841h15c.137-.887.063-1.677-.221-2.37a3.321 3.321 0 0 0-1.381-1.62c-.625-.397-1.392-.596-2.301-.596a5.41 5.41 0 0 0-2.591.648 6.23 6.23 0 0 0-2.028 1.705 5.576 5.576 0 0 0-1.091 2.42l-.904 4.96c-.181 1.102-.13 2.046.154 2.83a3.398 3.398 0 0 0 1.466 1.807c.693.409 1.585.613 2.676.613.727 0 1.409-.096 2.045-.29a5.328 5.328 0 0 0 1.705-.903 4.9 4.9 0 0 0 1.244-1.483l7.602.222a11.84 11.84 0 0 1-2.846 4.483c-1.284 1.261-2.852 2.244-4.705 2.949-1.841.693-3.909 1.04-6.204 1.04zm23.62 0c-1.227 0-2.278-.431-3.153-1.295-.864-.864-1.29-1.91-1.278-3.136-.012-1.205.414-2.234 1.278-3.086.875-.863 1.926-1.295 3.153-1.295 1.16 0 2.182.432 3.069 1.295.897.852 1.352 1.881 1.363 3.085a4.233 4.233 0 0 1-.647 2.233 4.656 4.656 0 0 1-1.62 1.603 4.11 4.11 0 0 1-2.165.596z" fill="#fff"/></svg>
